X:1
T:Title
%%score { ( 1 3 ) | ( 2 4 ) }
L:1/8
M:4/4
K:Db
V:1 treble nm="Grand Piano"
V:3 treble 
V:2 bass 
V:4 bass 
V:1
 z4 z2[Q:1/4=90] [DF][EG] | [FA][_F=G][=FA][_GB] [FA][DF][EG]F | FEEF G2 [CE][=DF] | %3
 [EG][DF][EG][FA] [Ac][GB][CGA][CGB] | [DFA]6 [A,DF][A,EG] | [FA][_F=G][=FA][Fd] [Fd][FA]_GF | %6
 FEEG B2 cB | ABAG FA[EG][CE] |[M:3/4] D6 |[M:1/4] [Fd][Ac] |[M:4/4] [Ac]BBB GBcB | A6 z2 | %12
 [Ac]BBB [=GB][GB][Gc][Gd] |[M:9/8] e6- e z z |[M:4/4] [FA][DF][FA][Fd] [FA]2 [Fd][Ac] | %15
[M:9/8] [Ac]BG B d2- dcB |[M:4/4] ABAG FA[EG][CE] |[M:7/8] D-D-D- D- D3 |] %18
V:2
 z4 z2 [D,A,][D,A,] | [D,D][D,D][D,D][D,D] [D,D][D,A,][C,A,][D,A,D] | %2
 [A,D][A,C][G,B,][F,B,=D] [E,B,E]2 [A,,A,][A,,A,] | %3
 [A,,A,][A,,A,][A,,A,][A,,A,] [A,,A,][A,,A,]A,,A,, | D,6 D,D, | %5
 [D,D][D,D][D,D][D,A,] [D,A,][D,D][E,A,E][F,A,D] | %6
 [G,B,D][G,B,D][G,B,D][G,B,D][K:treble] [=G,D_F]2 [G,DF][G,DF] | %7
 [A,DF][=G,D_F][A,D=F][=A,CE] [_A,D][A,F][K:bass][A,,A,][A,,G,] |[M:3/4] [D,F,]6 | %9
[M:1/4] [D,A,][F,D] |[M:4/4] [G,D][G,DG][G,DG][G,DG] [G,B,][G,CG][G,DA][G,DG] | %11
 [F,D]2 [E,C]A,, D,2 [D,A,][F,D] | [G,D][G,DG][G,DG][G,DG] [E,D][E,D][E,C][E,B,] | %13
[M:9/8][K:treble] [A,CA][A,C][B,D] [B,D] [A,C]2- [A,C][A,CG][A,CG] | %14
[M:4/4][K:bass] [D,D][D,A,][D,D][D,A,] [D,D]2 [D,D][F,D] | %15
[M:9/8] [G,D][G,DG][G,B,] [G,DG] [G,B,_F]2- [G,B,F][G,CF][G,DF] | %16
[M:4/4][K:treble] [A,DF][=G,D_F][A,D=F][B,DE] [A,D][A,F][K:bass][A,,A,][A,,_G,] | %17
[M:7/8] D,2- [D,-G,] [D,-G,] [D,F,]3 |] %18
V:3
 x8 | x8 | x8 | x8 | x8 | x8 | x8 | x8 |[M:3/4] x6 |[M:1/4] x2 |[M:4/4] x8 | %11
 z2 G[CG] [DF]2 [Fd][Ac] | x8 |[M:9/8] z A=G G _G2- GAB |[M:4/4] x8 |[M:9/8] x9 |[M:4/4] x8 | %17
[M:7/8] z2 B, =A, _A,3 |] %18
V:4
 x8 | x8 | x8 | x8 | x8 | x8 | x4[K:treble] x4 | x6[K:bass] x2 |[M:3/4] x6 |[M:1/4] x2 | %10
[M:4/4] x8 | x8 | x8 |[M:9/8][K:treble] x9 |[M:4/4][K:bass] x8 |[M:9/8] x9 | %16
[M:4/4][K:treble] x6[K:bass] x2 |[M:7/8] F,2 z z z z2 |] %18

